src/assets/icons/volume-low.svg

<svg widh="100%" height="100%" viewBox="0 0 24 24" fill="current"
  xmlns="http://www.w3.org/2000/svg">
  <path d="M9.58078 4.43141C10.0599 3.9832 10.4523 4.13528 10.4523 4.76929V19.2305C10.4523 19.8647 10.0599 20.0168 9.58078 19.5684L5.07457 15.3535H2.08696V8.64685H5.07457L9.58078 4.43141ZM12.3386 16.0001C12.1093 16.0001 11.8796 15.9185 11.7043 15.7546C11.3541 15.427 11.3541 14.896 11.7043 14.569C13.2184 13.1527 13.2184 10.8484 11.7043 9.43217C11.3541 9.10463 11.3541 8.57368 11.7043 8.24653C12.0544 7.91937 12.622 7.91937 12.9718 8.24653C15.1846 10.3171 15.1846 13.6852 12.9718 15.7553C12.7969 15.9178 12.568 16.0001 12.3386 16.0001Z"/>
</svg>

<svg xmlns="http://www.w3.org/2000/svg" fill="currentColor" viewBox="0 0 24 24">
  <path d="M9.58 4.431c.48-.448.872-.296.872.338V19.23c0 .635-.392.787-.871.338l-4.506-4.215H2.087V8.648h2.988L9.58 4.43Zm2.759 11.57a.927.927 0 0 1-.635-.246.8.8 0 0 1 0-1.186c1.514-1.416 1.514-3.72 0-5.137a.8.8 0 0 1 0-1.185.941.941 0 0 1 1.268 0c2.213 2.07 2.213 5.438 0 7.508a.93.93 0 0 1-.633.245Z"/>
</svg>
